X: 3
T: The Holly Bush
R: reel
M: 4/4
L: 1/8
K: Dmix
|(3ABA FA DAFG|Adde fded|cG ~G2 cGdG|cGed cAGE||(3ABA FA DAFG|Adde fded|cG ~G2 cedB|cAGE D2 dB||(3ABA FA DAFG|Adde fded|cG ~G2 EGcG|C2 ed cAGE||(3ABA FA DAFG|Adde fded|cG ~G2 cedB|cAGE D2 dc||Add^c defg|aged cAGE|~G2 EG cgeg|aged cAGc||Add^c defg|adfa dcAB|~c2 Bd cAGc|AEGE D2 dc||Add^c defg|aged cAGE|~G2 EG cgeg|aged cAGc||Add^c defg|add^c dcAB|~c2 Bd cAGc|AEGE D2 dc||(3ABA FA DAFG|Adde fded|cG ~G2 cGdG|cGed cAGE||(3ABA FA DAFG|Adde fded|cG ~G2 cedB|cAGE D2 dB||(3ABA FA DAFG|Adde fded|cG ~G2 EGcG|C2 ed cAGE||(3ABA FA DAFG|Adde fded|cG ~G2 cedB|cAGE D2 dc||Add^c defg|aged cAGE|~G2 EG cgeg|aged cAGc||Add^c defg|add^c dcAB|~c2 Bd cAGc|AEGE D2 dc||Add^c defg|aged cAGE|~G2 EG cgeg|aged cAGc||Add^c defg|add^c dcAB|~c2 Bd cAGc|AEGE D2 dc||(3ABA FA DAFG|Adde fded|cG ~G2 EGcG|C2 ed cAGE||(3ABA FA DAFG|Adde fded|cG ~G2 cedB|cAGE D2 dB||(3ABA FA DAFG|Ad ~d2 adBd|cG ~G2 EGcG|C2 ed cAGE||(3ABA FA DAFG|Adde fded|cG ~G2 cedB|cAGE D2 dc||Add^c defg|aged cAGE|~G2 EG cgeg|aged cAGc||Add^c defg|add^c dcAB|~c2 Bd cAGc|AEGE D2 dc||Add^c defg|aged cAGE|~G2 EG cgeg|aged cAGc||Add^c defg|add^c dcAB|~c2 Bd cAGc|AcGE D2 ag|


Tune 1566	Setting 29284

